icons/test-ts.svg

<svg version="1.1" viewBox="0 0 24 24" xmlns="http://www.w3.org/2000/svg"><path d="m5 19a1 1 0 0 0 1 1h12a1 1 0 0 0 1 -1c0-.21-.07-.41-.18-.57l-5.82-10.08v-4.35h-2v4.35l-5.82 10.08c-.11.16-.18.36-.18.57m1 3a3 3 0 0 1 -3 -3c0-.6.18-1.16.5-1.63l5.5-9.56v-1.81a1 1 0 0 1 -1 -1v-1a2 2 0 0 1 2 -2h4a2 2 0 0 1 2 2v1a1 1 0 0 1 -1 1v1.81l5.5 9.56c.32.47.5 1.03.5 1.63a3 3 0 0 1 -3 3h-12m7-6l1.34-1.34 1.93 3.34h-8.54l2.66-4.61 2.61 2.61m-.5-4a.5 .5 0 0 1 .5 .5 .5 .5 0 0 1 -.5 .5 .5 .5 0 0 1 -.5 -.5 .5 .5 0 0 1 .5 -.5z" style="fill:#0288D1"/></svg>

<?xml version="1.0" encoding="UTF-8" standalone="no"?>
<svg
   xmlns:dc="http://purl.org/dc/elements/1.1/"
   xmlns:cc="http://creativecommons.org/ns#"
   xmlns:rdf="http://www.w3.org/1999/02/22-rdf-syntax-ns#"
   xmlns:svg="http://www.w3.org/2000/svg"
   xmlns="http://www.w3.org/2000/svg"
   xmlns:sodipodi="http://sodipodi.sourceforge.net/DTD/sodipodi-0.dtd"
   xmlns:inkscape="http://www.inkscape.org/namespaces/inkscape"
   version="1.1"
   width="24"
   height="24"
   viewBox="0 0 24 24"
   id="svg4"
   sodipodi:docname="test-ts.svg"
   inkscape:version="0.92.0 r15299">
  <metadata
     id="metadata10">
    <rdf:RDF>
      <cc:Work
         rdf:about="">
        <dc:format>image/svg+xml</dc:format>
        <dc:type
           rdf:resource="http://purl.org/dc/dcmitype/StillImage" />
        <dc:title></dc:title>
      </cc:Work>
    </rdf:RDF>
  </metadata>
  <defs
     id="defs8" />
  <sodipodi:namedview
     pagecolor="#ffffff"
     bordercolor="#666666"
     borderopacity="1"
     objecttolerance="10"
     gridtolerance="10"
     guidetolerance="10"
     inkscape:pageopacity="0"
     inkscape:pageshadow="2"
     inkscape:window-width="1366"
     inkscape:window-height="705"
     id="namedview6"
     showgrid="false"
     inkscape:zoom="9.8333333"
     inkscape:cx="12"
     inkscape:cy="12"
     inkscape:window-x="-8"
     inkscape:window-y="-8"
     inkscape:window-maximized="1"
     inkscape:current-layer="svg4" />
  <path
     d="M5,19A1,1 0 0,0 6,20H18A1,1 0 0,0 19,19C19,18.79 18.93,18.59 18.82,18.43L13,8.35V4H11V8.35L5.18,18.43C5.07,18.59 5,18.79 5,19M6,22A3,3 0 0,1 3,19C3,18.4 3.18,17.84 3.5,17.37L9,7.81V6A1,1 0 0,1 8,5V4A2,2 0 0,1 10,2H14A2,2 0 0,1 16,4V5A1,1 0 0,1 15,6V7.81L20.5,17.37C20.82,17.84 21,18.4 21,19A3,3 0 0,1 18,22H6M13,16L14.34,14.66L16.27,18H7.73L10.39,13.39L13,16M12.5,12A0.5,0.5 0 0,1 13,12.5A0.5,0.5 0 0,1 12.5,13A0.5,0.5 0 0,1 12,12.5A0.5,0.5 0 0,1 12.5,12Z"
     id="path2"
     style="fill:#0288D1;fill-opacity:1" />
</svg>
